icons/chevron-double-downright.svg

<svg width="24" height="25" viewBox="0 0 24 25" fill="none" xmlns="http://www.w3.org/2000/svg">
<path fill-rule="evenodd" clip-rule="evenodd" d="M11.296 5.87228C11.7101 5.87885 12.0405 6.21993 12.034 6.63409L11.9633 11.0838C11.9618 11.4561 11.8358 11.8333 11.5581 12.1111C11.2889 12.3803 10.9155 12.513 10.5252 12.4643L6.13408 12.534C5.71992 12.5405 5.37885 12.2101 5.37227 11.796C5.3657 11.3818 5.69611 11.0407 6.11027 11.0342L10.465 10.965L10.5342 6.61028C10.5407 6.19612 10.8818 5.8657 11.296 5.87228ZM10.461 11.1035C10.461 11.1035 10.4611 11.1029 10.4615 11.1018L10.461 11.1035Z" fill="black"/>
<path fill-rule="evenodd" clip-rule="evenodd" d="M15.5386 10.115C15.9528 10.1215 16.2832 10.4626 16.2766 10.8768L16.206 15.3265C16.2045 15.6987 16.0785 16.076 15.8007 16.3538C15.5315 16.623 15.1581 16.7557 14.7679 16.7069L10.3768 16.7766C9.9626 16.7832 9.62152 16.4528 9.61495 16.0386C9.60837 15.6245 9.93879 15.2834 10.353 15.2768L14.7077 15.2077L14.7768 10.853C14.7834 10.4388 15.1245 10.1084 15.5386 10.115ZM14.7037 15.3462C14.7037 15.3462 14.7038 15.3456 14.7042 15.3444L14.7037 15.3462Z" fill="black"/>
</svg>

<svg xmlns="http://www.w3.org/2000/svg" fill="none" viewBox="0 0 24 25">
  <path fill="#000" fill-rule="evenodd" d="M11.296 5.872a.75.75 0 0 1 .738.762l-.07 4.45c-.002.372-.128.75-.406 1.027a1.23 1.23 0 0 1-1.033.353l-4.39.07a.75.75 0 0 1-.025-1.5l4.355-.069.07-4.355a.75.75 0 0 1 .761-.738Zm-.835 5.232v-.002.002Zm5.078-.989a.75.75 0 0 1 .738.762l-.071 4.45a1.454 1.454 0 0 1-.405 1.027c-.27.269-.643.402-1.033.353l-4.391.07a.75.75 0 1 1-.024-1.5l4.355-.07.069-4.354a.75.75 0 0 1 .762-.738Zm-.835 5.231v-.002.002Z" clip-rule="evenodd"/>
</svg>
